X:1
T:Brighton Camp (The Girl I Left Behind Me)
L:1/8
Q:1/4=110
M:2/4
K:G
"G""^Brighton Camp (The Girl I Left Behind Me)" z4 |"Em" z4 |"C" z4 |"D" z4 |
"G" z4 |"Em" z4 |"C""D" z4 |"G" z4 ::
 B"G"d ef | g"G"d Bd/c/ | B"C"d ef |"D" g a/g/"C" f g/f/ |
"Em" ed BA |"D" BG E>G |"C" F/G/A"D" DE/F/ |"G" G2 G z ::
